X:195
T:The Union Reel
M:4/4
L:1/8
Q:150
C:Traditional
K:A
e2 (3cBA eAcA | eAcA BcdF |1 e2 (3cBA eAcA | Bcdc BAFA :|2 efec dcBA | F
ABc d3 c || df f2 dfec | df f2 afef | df f2 dfec | dcBA FABc | df f2
dfec | df f2 afef | df f2 dfec | dcBA FAdf ||
